cy/printer-solid.svg

<svg viewBox="0 0 36 36" xmlns="http://www.w3.org/2000/svg" height="1em" width="1em">
  <path d="M29 9h-2V5H9v4H7a4 4 0 0 0-4 4v11h6v8h18v-8h6V13a4 4 0 0 0-4-4Zm-4 15v6H11V19h14Zm0-15H11V7h14Zm4 6h-2v-2h2Z" class="clr-i-solid clr-i-solid-path-1"/>
  <path fill="none" d="M0 0h36v36H0z"/>
</svg>

<svg version="1.1" viewBox="0 0 36 36" preserveAspectRatio="xMidYMid meet" xmlns="http://www.w3.org/2000/svg" height="1em" width="1em">
  <path d="M29,9H27V5H9V9H7a4,4,0,0,0-4,4V24H9v8H27V24h6V13A4,4,0,0,0,29,9ZM25,24v6H11V19H25ZM25,9H11V7H25Zm4,6H27V13h2Z" class="clr-i-solid clr-i-solid-path-1"/>
  <rect x="0" y="0" width="36" height="36" fill-opacity="0"/>
</svg>
